packages/core/src/svgs/mnr.svg

<svg width="24" height="24" viewBox="0 0 24 24" fill="none" xmlns="http://www.w3.org/2000/svg">
<g clip-path="url(#clip0_31_14062)">
<path d="M0 0H24V24H0V0Z" fill="#F0F3FA"/>
<path d="M8.9999 17.1001V13.8001L6.33419 11.1258L8.73419 8.67012C8.75746 8.64724 8.78857 8.63406 8.8212 8.63327C8.85383 8.63247 8.88554 8.64411 8.9099 8.66584L9.85705 9.37298V17.9916C9.85705 18.0258 9.8699 18.0601 9.8999 18.0858L11.357 19.6801C11.4342 19.7573 11.5713 19.6973 11.5713 19.5901V7.95012C11.5199 6.38584 10.6028 6.00012 10.0842 6.00012H8.37847C7.91562 5.98298 7.46133 6.33012 7.2899 6.50584L3.76276 10.0501C3.54749 10.3377 3.43115 10.6873 3.43115 11.0466C3.43115 11.4058 3.54749 11.7554 3.76276 12.043L8.73419 17.1858C8.81133 17.2673 8.9999 17.2158 8.9999 17.1001Z" fill="url(#paint0_linear_31_14062)"/>
<path d="M15.0429 17.1V13.8L17.6657 11.1257L15.2657 8.67C15.2425 8.64711 15.2114 8.63394 15.1787 8.63314C15.1461 8.63235 15.1144 8.64399 15.09 8.66571L14.1429 9.37286V17.9443C14.1427 17.9621 14.1388 17.9797 14.1314 17.9959C14.124 18.0122 14.1133 18.0267 14.1 18.0386L12.6429 19.68C12.5572 19.7571 12.4243 19.7014 12.4243 19.59V7.13143L13.26 6H16.1657L20.2372 10.05C20.8415 10.8771 20.49 11.7214 20.2372 12.0429L15.2657 17.1857C15.1886 17.2671 15.0472 17.2114 15.0472 17.1H15.0429Z" fill="#27B4FB"/>
<path d="M3.4585 10.7312L6.57421 11.3655L6.33421 11.1255L7.60707 9.82267L5.84992 7.9541L3.76278 10.0541C3.59135 10.2812 3.50135 10.5084 3.4585 10.7312Z" fill="url(#paint1_linear_31_14062)"/>
<path d="M5.8457 7.95441L7.60713 9.82298L8.73427 8.67012C8.75755 8.64724 8.78865 8.63406 8.82129 8.63327C8.85392 8.63247 8.88563 8.64411 8.90999 8.66584L9.85713 9.37298V12.0387L11.5714 12.3516V7.95012C11.52 6.38584 10.6028 6.00012 10.0843 6.00012H8.37856C7.9157 5.98298 7.46142 6.33012 7.28999 6.50584L5.8457 7.95441Z" fill="url(#paint2_linear_31_14062)"/>
<path d="M11.5715 12.3513L9.85718 12.0342V12.4199L11.5715 14.1085V12.3513Z" fill="#40B7F9"/>
<path d="M11.5715 14.1084L9.85718 12.4155V18.0084C9.85718 18.0427 9.87432 18.077 9.90004 18.0984L11.3486 19.6798C11.43 19.757 11.5715 19.697 11.5715 19.5898V14.0998V14.1084Z" fill="url(#paint3_linear_31_14062)"/>
<path d="M12.4285 14.7855V12.5483L14.1428 12.9769V16.5426L12.4285 14.7855Z" fill="#2FADF7"/>
<path d="M14.1428 12.9771L12.4285 12.5486V7.14L13.2599 6H16.1656L20.237 10.05C20.8413 10.8771 20.4899 11.7214 20.237 12.0429L18.407 13.9371L15.5056 13.2857L17.6656 11.1214L15.2656 8.66571C15.2423 8.64283 15.2112 8.62965 15.1786 8.62886C15.146 8.62806 15.1143 8.6397 15.0899 8.66143L14.1428 9.37286V12.9771Z" fill="url(#paint4_linear_31_14062)"/>
<path d="M15 13.8V17.1C15 17.2115 15.1886 17.2672 15.2657 17.1858L18.4114 13.9329L15.51 13.29L15 13.7915V13.8Z" fill="#2EAEF7"/>
<path d="M7.54284 9.88695L5.78569 8.0141L5.91855 7.87695L7.67569 9.74981L7.54712 9.88695H7.54284ZM6.69855 11.507L3.44141 10.8298L3.47569 10.6412L6.47998 11.2712L6.69855 11.507ZM11.5714 12.4712L9.85712 12.1112V11.9055L11.5714 12.2784V12.4712ZM11.5714 14.3784L9.85712 12.4284V12.167L11.5714 14.1298V14.3827V14.3784ZM14.1428 13.1055L12.4285 12.6127V12.4155L14.1428 12.9127V13.1055ZM18.3128 14.0312L15.4628 13.3755L15.6214 13.2041L18.4671 13.8684L18.3128 14.0312ZM14.1428 16.7998L12.4285 14.7855V14.5284L14.1428 16.5341V16.7998Z" fill="#369BF3"/>
</g>
<defs>
<linearGradient id="paint0_linear_31_14062" x1="5.14705" y1="11.2116" x2="7.86847" y2="16.8216" gradientUnits="userSpaceOnUse">
<stop stop-color="#5DD8FA"/>
<stop offset="0.39" stop-color="#39B3F6"/>
<stop offset="1" stop-color="#29B6FE"/>
</linearGradient>
<linearGradient id="paint1_linear_31_14062" x1="6.79707" y1="8.99982" x2="4.99707" y2="11.0141" gradientUnits="userSpaceOnUse">
<stop offset="0.04" stop-color="#85AEEC"/>
<stop offset="0.48" stop-color="#7C98EC"/>
<stop offset="1" stop-color="#569AED"/>
</linearGradient>
<linearGradient id="paint2_linear_31_14062" x1="8.70856" y1="6.00012" x2="8.9657" y2="11.6316" gradientUnits="userSpaceOnUse">
<stop stop-color="#B86BF1"/>
<stop offset="0.42" stop-color="#9B73ED"/>
<stop offset="1" stop-color="#459FF7"/>
</linearGradient>
<linearGradient id="paint3_linear_31_14062" x1="10.7143" y1="12.4155" x2="10.7143" y2="19.7141" gradientUnits="userSpaceOnUse">
<stop stop-color="#3DBEF8"/>
<stop offset="1" stop-color="#1EADFB"/>
</linearGradient>
<linearGradient id="paint4_linear_31_14062" x1="16.4999" y1="6" x2="14.9442" y2="12.9814" gradientUnits="userSpaceOnUse">
<stop stop-color="#B56DED"/>
<stop offset="0.67" stop-color="#5396F1"/>
<stop offset="1" stop-color="#3DA3F2"/>
</linearGradient>
<clipPath id="clip0_31_14062">
<rect width="24" height="24" fill="white"/>
</clipPath>
</defs>
</svg>

<svg xmlns="http://www.w3.org/2000/svg" width="24" height="24" fill="none" viewBox="0 0 24 24"><g clip-path="url(#a)"><path fill="#F0F3FA" d="M0 0h24v24H0z"/><path fill="url(#b)" d="M9 17.1v-3.3l-2.666-2.674 2.4-2.456a.13.13 0 0 1 .176-.004l.947.707v8.619c0 .034.013.068.043.094l1.457 1.594c.077.077.214.017.214-.09V7.95C11.52 6.386 10.603 6 10.084 6H8.378c-.462-.017-.917.33-1.088.506L3.763 10.05a1.66 1.66 0 0 0 0 1.993l4.971 5.143c.077.081.266.03.266-.086"/><path fill="#27B4FB" d="M15.043 17.1v-3.3l2.623-2.674-2.4-2.456a.13.13 0 0 0-.176-.004l-.947.707v8.571a.13.13 0 0 1-.043.095l-1.457 1.641c-.086.077-.219.021-.219-.09V7.131L13.26 6h2.906l4.071 4.05c.605.827.253 1.671 0 1.993l-4.971 5.143c-.077.081-.219.025-.219-.086z"/><path fill="url(#c)" d="m3.459 10.731 3.115.635-.24-.24 1.273-1.303L5.85 7.954l-2.087 2.1a1.6 1.6 0 0 0-.304.677"/><path fill="url(#d)" d="m5.846 7.954 1.761 1.869L8.734 8.67a.13.13 0 0 1 .176-.004l.947.707v2.666l1.714.313V7.95C11.52 6.386 10.603 6 10.084 6H8.38c-.463-.017-.918.33-1.089.506z"/><path fill="#40B7F9" d="m11.572 12.351-1.715-.317v.386l1.715 1.688z"/><path fill="url(#e)" d="m11.572 14.108-1.715-1.693v5.593a.12.12 0 0 0 .043.09l1.449 1.582c.081.077.223.017.223-.09V14.1z"/><path fill="#2FADF7" d="M12.429 14.786v-2.238l1.714.429v3.566z"/><path fill="url(#f)" d="m14.143 12.977-1.715-.428V7.14L13.26 6h2.906l4.071 4.05c.604.827.253 1.671 0 1.993l-1.83 1.894-2.901-.651 2.16-2.165-2.4-2.455a.13.13 0 0 0-.176-.005l-.947.712z"/><path fill="#2EAEF7" d="M15 13.8v3.3c0 .111.189.167.266.086l3.145-3.253-2.901-.643-.51.502z"/><path fill="#369BF3" d="M7.543 9.887 5.786 8.014l.133-.137L7.676 9.75l-.129.137zm-.844 1.62L3.44 10.83l.035-.189 3.004.63zm4.872.964-1.714-.36v-.206l1.714.373zm0 1.907-1.714-1.95v-.261l1.714 1.963v.253zm2.572-1.273-1.715-.492v-.197l1.715.497zm4.17.926-2.85-.655.158-.172 2.846.664zm-4.17 2.769-1.715-2.014v-.258l1.715 2.006z"/></g><defs><linearGradient id="b" x1="5.147" x2="7.868" y1="11.212" y2="16.822" gradientUnits="userSpaceOnUse"><stop stop-color="#5DD8FA"/><stop offset=".39" stop-color="#39B3F6"/><stop offset="1" stop-color="#29B6FE"/></linearGradient><linearGradient id="c" x1="6.797" x2="4.997" y1="9" y2="11.014" gradientUnits="userSpaceOnUse"><stop offset=".04" stop-color="#85AEEC"/><stop offset=".48" stop-color="#7C98EC"/><stop offset="1" stop-color="#569AED"/></linearGradient><linearGradient id="d" x1="8.709" x2="8.966" y1="6" y2="11.632" gradientUnits="userSpaceOnUse"><stop stop-color="#B86BF1"/><stop offset=".42" stop-color="#9B73ED"/><stop offset="1" stop-color="#459FF7"/></linearGradient><linearGradient id="e" x1="10.714" x2="10.714" y1="12.415" y2="19.714" gradientUnits="userSpaceOnUse"><stop stop-color="#3DBEF8"/><stop offset="1" stop-color="#1EADFB"/></linearGradient><linearGradient id="f" x1="16.5" x2="14.944" y1="6" y2="12.981" gradientUnits="userSpaceOnUse"><stop stop-color="#B56DED"/><stop offset=".67" stop-color="#5396F1"/><stop offset="1" stop-color="#3DA3F2"/></linearGradient><clipPath id="a"><path fill="#fff" d="M0 0h24v24H0z"/></clipPath></defs></svg>
